icons/web-color.svg

<svg xmlns="http://www.w3.org/2000/svg" viewBox="0 0 760 760"><defs><style>.cls-1{fill:#ff1744;}.cls-2{fill:#fff;}</style></defs><title>web-color</title><g id="circle"><circle class="cls-1" cx="380" cy="380" r="380"/></g><g id="icon"><path class="cls-2" d="M380,124c-141.38,0-256,114.61-256,256S238.62,636,380,636,636,521.39,636,380,521.38,124,380,124Zm-99.09,60a225.69,225.69,0,0,0-13.14,20.48,275.22,275.22,0,0,0-17,35.88Q234.9,236,219.19,230.5A220.94,220.94,0,0,1,280.91,184Zm-88.26,81.42q22.52,8.45,45.41,14.83a401.87,401.87,0,0,0-11.48,78.88H161.32A218.18,218.18,0,0,1,192.66,265.38Zm0,229.23a218.15,218.15,0,0,1-31.34-93.71h65.27a402,402,0,0,0,11.48,78.88Q215.2,486.17,192.66,494.62Zm26.53,34.88q15.7-5.45,31.59-9.82a275.4,275.4,0,0,0,17,35.88A225.58,225.58,0,0,0,280.91,576,221,221,0,0,1,219.19,529.5Zm139.9,59.33c-26.77-10-50.49-38.85-67-78.63a485,485,0,0,1,67-7.61Zm0-128.15a526.38,526.38,0,0,0-80.24,9.44,361.14,361.14,0,0,1-10.39-69.21h90.63Zm0-101.59H268.47a361.14,361.14,0,0,1,10.39-69.21,526.2,526.2,0,0,0,80.24,9.44Zm0-101.68a485,485,0,0,1-67-7.61c16.53-39.78,40.25-68.59,67-78.63Zm208.25,8a218.14,218.14,0,0,1,31.34,93.71H533.41a401.92,401.92,0,0,0-11.48-78.88Q544.8,273.84,567.34,265.39Zm-26.53-34.88q-15.7,5.45-31.59,9.83a275.25,275.25,0,0,0-17-35.89A226.15,226.15,0,0,0,479.09,184,221,221,0,0,1,540.81,230.51ZM400.91,171.17c26.77,10,50.49,38.85,67,78.64a485,485,0,0,1-67,7.61Zm0,128.15a526.31,526.31,0,0,0,80.24-9.44,361.1,361.1,0,0,1,10.39,69.21H400.91V299.32Zm0,101.58h90.63a361.1,361.1,0,0,1-10.39,69.21,526.31,526.31,0,0,0-80.24-9.44V400.91Zm0,187.92V502.59a484.92,484.92,0,0,1,67,7.61C451.4,550,427.68,578.79,400.91,588.83ZM479.09,576a225.39,225.39,0,0,0,13.14-20.48,275.3,275.3,0,0,0,17-35.88q15.88,4.37,31.59,9.83A221,221,0,0,1,479.09,576Zm88.26-81.42q-22.52-8.46-45.41-14.83a402,402,0,0,0,11.48-78.88h65.27A218.17,218.17,0,0,1,567.34,494.61Z"/></g></svg>

<?xml version="1.0" encoding="utf-8"?>
<!-- Generator: Adobe Illustrator 21.1.0, SVG Export Plug-In . SVG Version: 6.00 Build 0)  -->
<svg version="1.1" id="Layer_1" xmlns="http://www.w3.org/2000/svg" xmlns:xlink="http://www.w3.org/1999/xlink" x="0px" y="0px"
	 viewBox="0 0 760 760" style="enable-background:new 0 0 760 760;" xml:space="preserve">
<style type="text/css">
	.st0{fill:#FF1744;}
	.st1{fill:#FFFFFF;}
</style>
<title>web-color</title>
<g id="web-circle">
	<circle class="st0" cx="380" cy="380" r="380"/>
</g>
<g id="web-icon">
	<path class="st1" d="M380,124c-141.4,0-256,114.6-256,256s114.6,256,256,256s256-114.6,256-256S521.4,124,380,124z M280.9,184
		c-4.7,6.6-9.1,13.4-13.1,20.5c-6.5,11.5-12.2,23.5-17,35.9c-10.6-2.9-21.1-6.2-31.6-9.9C236.9,211.5,257.8,195.8,280.9,184z
		 M192.6,265.4c15,5.6,30.2,10.6,45.4,14.8c-6.4,25.8-10.3,52.3-11.5,78.9h-65.3C164.5,325.9,175.2,293.8,192.6,265.4L192.6,265.4z
		 M192.6,494.6c-17.5-28.4-28.2-60.5-31.3-93.7h65.3c1.2,26.6,5,53,11.5,78.9C222.8,484.1,207.7,489,192.6,494.6L192.6,494.6z
		 M219.2,529.5c10.5-3.6,21-6.9,31.6-9.8c4.8,12.4,10.5,24.3,17,35.9c4,7,8.4,13.8,13.1,20.4C257.8,564.2,236.9,548.5,219.2,529.5
		L219.2,529.5z M359.1,588.9c-26.8-10-50.5-38.8-67-78.6c22.1-4.1,44.5-6.6,67-7.6V588.9z M359.1,460.7c-26.9,1.1-53.8,4.2-80.2,9.4
		c-5.7-22.7-9.2-45.9-10.4-69.2h90.6V460.7z M359.1,359.1h-90.6c1.2-23.4,4.7-46.5,10.4-69.2c26.5,5.2,53.3,8.4,80.2,9.4
		L359.1,359.1z M359.1,257.4c-22.5-1-44.9-3.5-67-7.6c16.5-39.8,40.2-68.6,67-78.6V257.4z M567.3,265.4
		c17.5,28.4,28.2,60.5,31.3,93.7h-65.3c-1.2-26.6-5-53-11.5-78.9C537.2,276,552.3,271,567.3,265.4L567.3,265.4z M540.8,230.6
		c-10.5,3.6-21,6.9-31.6,9.8c-4.8-12.4-10.5-24.4-17-35.9c-4-7.1-8.4-13.9-13.1-20.5C502.2,195.8,523.1,211.5,540.8,230.6
		L540.8,230.6z M400.9,171.2c26.8,10,50.5,38.8,67,78.6c-22.1,4.1-44.5,6.6-67,7.6V171.2z M400.9,299.3c26.9-1.1,53.8-4.2,80.2-9.4
		c5.7,22.7,9.2,45.9,10.4,69.2h-90.6V299.3z M400.9,400.9h90.6c-1.2,23.4-4.7,46.5-10.4,69.2c-26.5-5.2-53.3-8.4-80.2-9.4V400.9
		L400.9,400.9z M400.9,588.8v-86.2c22.5,1,44.9,3.5,67,7.6C451.4,550,427.7,578.8,400.9,588.8L400.9,588.8z M479.1,576
		c4.7-6.6,9.1-13.4,13.1-20.5c6.5-11.5,12.2-23.5,17-35.9c10.6,2.9,21.1,6.2,31.6,9.8C523.1,548.5,502.2,564.2,479.1,576z
		 M567.3,494.6c-15-5.6-30.2-10.6-45.4-14.8c6.4-25.8,10.3-52.3,11.5-78.9h65.3C595.5,434.1,584.8,466.2,567.3,494.6L567.3,494.6z"
		/>
</g>
</svg>
